img/comments.svg

<svg width="40" height="40" viewBox="0 0 40 40" fill="none" xmlns="http://www.w3.org/2000/svg">
<mask id="mask0_248_19" style="mask-type:alpha" maskUnits="userSpaceOnUse" x="0" y="0" width="40" height="40">
<rect width="40" height="40" fill="#D9D9D9"/>
</mask>
<g mask="url(#mask0_248_19)">
<path d="M10 23.375H23.125V20.583H10V23.375ZM10 18.083H30V15.292H10V18.083ZM10 12.792H30V10.042H10V12.792ZM3.333 36.667V6.12501C3.333 5.37501 3.611 4.72234 4.167 4.16701C4.72233 3.61101 5.375 3.33301 6.125 3.33301H33.875C34.625 3.33301 35.2777 3.61101 35.833 4.16701C36.389 4.72234 36.667 5.37501 36.667 6.12501V27.208C36.667 27.958 36.389 28.611 35.833 29.167C35.2777 29.7223 34.625 30 33.875 30H10L3.333 36.667ZM6.125 29.958L8.833 27.208H33.875V6.12501H6.125V29.958Z" fill="#1C1B1F"/>
</g>
</svg>

<svg width="40" height="40" fill="none" xmlns="http://www.w3.org/2000/svg"><mask id="a" style="mask-type:alpha" maskUnits="userSpaceOnUse" x="0" y="0" width="40" height="40"><path fill="#D9D9D9" d="M0 0h40v40H0z"/></mask><g mask="url(#a)"><path d="M10 23.375h13.125v-2.792H10v2.792zm0-5.292h20v-2.791H10v2.791zm0-5.291h20v-2.75H10v2.75zM3.333 36.667V6.125c0-.75.278-1.403.834-1.958.555-.556 1.208-.834 1.958-.834h27.75c.75 0 1.403.278 1.958.834.556.555.834 1.208.834 1.958v21.083c0 .75-.278 1.403-.834 1.959-.555.555-1.208.833-1.958.833H10l-6.667 6.667zm2.792-6.709l2.708-2.75h25.042V6.125H6.125v23.833z" fill="#1C1B1F"/></g></svg>
